ivy-dev/32/pool/unlocked.svg

<?xml version="1.0" encoding="UTF-8" standalone="no"?>
<!-- Created with Inkscape (http://www.inkscape.org/) -->

<svg
   xmlns:dc="http://purl.org/dc/elements/1.1/"
   xmlns:cc="http://creativecommons.org/ns#"
   xmlns:rdf="http://www.w3.org/1999/02/22-rdf-syntax-ns#"
   xmlns:svg="http://www.w3.org/2000/svg"
   xmlns="http://www.w3.org/2000/svg"
   xmlns:xlink="http://www.w3.org/1999/xlink"
   xmlns:sodipodi="http://sodipodi.sourceforge.net/DTD/sodipodi-0.dtd"
   xmlns:inkscape="http://www.inkscape.org/namespaces/inkscape"
   version="1.0"
   width="32"
   height="32"
   id="svg2"
   inkscape:version="0.48.3.1 r9886"
   sodipodi:docname="password.svg">
  <sodipodi:namedview
     pagecolor="#ffffff"
     bordercolor="#666666"
     borderopacity="1"
     objecttolerance="10"
     gridtolerance="10"
     guidetolerance="10"
     inkscape:pageopacity="0"
     inkscape:pageshadow="2"
     inkscape:window-width="1364"
     inkscape:window-height="747"
     id="namedview32"
     showgrid="true"
     inkscape:snap-bbox="true"
     inkscape:bbox-paths="true"
     inkscape:bbox-nodes="true"
     inkscape:snap-bbox-edge-midpoints="true"
     inkscape:snap-bbox-midpoints="true"
     inkscape:zoom="18.36"
     inkscape:cx="15.013072"
     inkscape:cy="13.106754"
     inkscape:window-x="0"
     inkscape:window-y="0"
     inkscape:window-maximized="1"
     inkscape:current-layer="svg2">
    <inkscape:grid
       type="xygrid"
       id="grid3009"
       empspacing="5"
       visible="true"
       enabled="true"
       snapvisiblegridlinesonly="true" />
  </sodipodi:namedview>
  <metadata
     id="metadata34">
    <rdf:RDF>
      <cc:Work
         rdf:about="">
        <dc:format>image/svg+xml</dc:format>
        <dc:type
           rdf:resource="http://purl.org/dc/dcmitype/StillImage" />
        <dc:title></dc:title>
      </cc:Work>
    </rdf:RDF>
  </metadata>
  <defs
     id="defs5">
    <linearGradient
       inkscape:collect="always"
       id="linearGradient3795">
      <stop
         style="stop-color:#ffffff;stop-opacity:1;"
         offset="0"
         id="stop3797" />
      <stop
         style="stop-color:#ffffff;stop-opacity:0;"
         offset="1"
         id="stop3799" />
    </linearGradient>
    <linearGradient
       id="linearGradient909">
      <stop
         id="stop911"
         style="stop-color:#ffffff;stop-opacity:1"
         offset="0" />
      <stop
         id="stop913"
         style="stop-color:#ffffff;stop-opacity:0"
         offset="1" />
    </linearGradient>
    <linearGradient
       id="linearGradient895">
      <stop
         id="stop897"
         style="stop-color:#929292;stop-opacity:1"
         offset="0" />
      <stop
         id="stop899"
         style="stop-color:#d6d6d6;stop-opacity:1"
         offset="1" />
    </linearGradient>
    <linearGradient
       id="linearGradient879">
      <stop
         id="stop881"
         style="stop-color:#ebebeb;stop-opacity:1"
         offset="0" />
      <stop
         id="stop883"
         style="stop-color:#6a6a6a;stop-opacity:1"
         offset="1" />
    </linearGradient>
    <radialGradient
       cx="25.269983"
       cy="12.785984"
       r="11"
       fx="25.269983"
       fy="12.785984"
       id="radialGradient885"
       xlink:href="#linearGradient879"
       gradientUnits="userSpaceOnUse"
       gradientTransform="matrix(-1.5879225,1.2657355,-1.3223142,-1.3939393,70.124772,-8.095428)" />
    <linearGradient
       x1="39"
       y1="20"
       x2="39"
       y2="47"
       id="linearGradient901"
       xlink:href="#linearGradient895"
       gradientUnits="userSpaceOnUse"
       gradientTransform="matrix(0.66666667,0,0,0.67824198,0,-0.87737255)" />
    <linearGradient
       x1="38"
       y1="20"
       x2="38"
       y2="46"
       id="linearGradient915"
       xlink:href="#linearGradient909"
       gradientUnits="userSpaceOnUse"
       gradientTransform="matrix(0.66666667,0,0,0.66666667,0,-0.666667)" />
    <linearGradient
       inkscape:collect="always"
       xlink:href="#linearGradient895"
       id="linearGradient3787"
       gradientUnits="userSpaceOnUse"
       gradientTransform="matrix(0.66666667,0,0,0.66666667,0,-0.33333297)"
       x1="39"
       y1="20"
       x2="39"
       y2="47" />
    <linearGradient
       inkscape:collect="always"
       xlink:href="#linearGradient3795"
       id="linearGradient3801"
       x1="24.96875"
       y1="14.03125"
       x2="24.96875"
       y2="29.96875"
       gradientUnits="userSpaceOnUse" />
  </defs>
  <g
     id="g3870"
     style="opacity:0.5">
    <path
       d="M 13.818182,5 C 10.594909,5 8,7.378667 8,10.333333 l 0,7.333334 C 8,20.621333 10.594909,23 13.818182,23 l 4.363637,0 C 21.405092,23 24,20.621333 24,17.666667 l 0,-7.333334 C 24,7.378667 21.405092,5 18.181819,5 z m 0,3.067 4.363637,0 c 1.66749,0 2.909091,0.7378 2.909091,2.266333 l 0,7.333334 c 0,1.528533 -1.241601,2.666666 -2.909091,2.666666 l -4.363637,0 c -1.66749,0 -2.809182,-1.138133 -2.809182,-2.666666 l 0,-7.333334 C 11.009,8.8048 12.150692,8.067 13.818182,8.067 z"
       inkscape:connector-curvature="0"
       id="path3828"
       style="fill:#000000;stroke:none;opacity:0.14999999999999999"
       sodipodi:nodetypes="ssssssssssssssssss" />
    <rect
       width="20"
       height="18"
       rx="2"
       ry="2"
       x="6"
       y="14"
       id="rect3824"
       style="fill:#000000;stroke:none;opacity:0.14999999999999999" />
    <path
       sodipodi:nodetypes="ssssssssssssssssss"
       style="fill:url(#radialGradient885);stroke:none"
       id="rect54"
       inkscape:connector-curvature="0"
       d="M 13.818182,4 C 10.594909,4 8,6.378667 8,9.333333 l 0,7.333334 C 8,19.621333 10.594909,22 13.818182,22 l 4.363637,0 C 21.405092,22 24,19.621333 24,16.666667 L 24,9.333333 C 24,6.378667 21.405092,4 18.181819,4 z m 0,3.067 4.363637,0 c 1.66749,0 2.909091,0.7378 2.909091,2.266333 l 0,7.333334 c 0,1.528533 -1.241601,2.666666 -2.909091,2.666666 l -4.363637,0 c -1.66749,0 -2.809182,-1.138133 -2.809182,-2.666666 l 0,-7.333334 C 11.009,7.8048 12.150692,7.067 13.818182,7.067 z" />
    <path
       d="m 13.8125,4.53125 c -2.954138,0 -5.28125,2.1760322 -5.28125,4.8125 l 0,7.3125 c 0,2.636468 2.327112,4.8125 5.28125,4.8125 l 4.375,0 c 2.954138,0 5.28125,-2.176032 5.28125,-4.8125 l 0,-7.3125 c 0,-2.6364678 -2.327112,-4.8125 -5.28125,-4.8125 l -4.375,0 z m 0,2 4.375,0 c 0.9157,0 1.761589,0.1843861 2.40625,0.65625 0.644661,0.4718639 1.03125,1.2448477 1.03125,2.15625 l 0,7.3125 c 0,1.822805 -1.517636,3.21875 -3.4375,3.21875 l -4.375,0 c -1.919864,0 -3.34375,-1.418216 -3.34375,-3.21875 l 0,-7.3125 c 0,-0.900267 0.345333,-1.6783164 0.96875,-2.15625 0.623417,-0.4779336 1.4593,-0.65625 2.375,-0.65625 z"
       id="path3822"
       style="opacity:0.40000000000000002;fill:none;stroke:#000000"
       inkscape:original="M 13.8125 4 C 10.589227 4 8 6.389084 8 9.34375 L 8 16.65625 C 8 19.610916 10.589227 22 13.8125 22 L 18.1875 22 C 21.410773 22 24 19.610916 24 16.65625 L 24 9.34375 C 24 6.389084 21.410773 4 18.1875 4 L 13.8125 4 z M 13.8125 7.0625 L 18.1875 7.0625 C 19.85499 7.0625 21.09375 7.815217 21.09375 9.34375 L 21.09375 16.65625 C 21.09375 18.184783 19.85499 19.34375 18.1875 19.34375 L 13.8125 19.34375 C 12.14501 19.34375 11 18.184783 11 16.65625 L 11 9.34375 C 11 7.815217 12.14501 7.0625 13.8125 7.0625 z "
       inkscape:radius="-0.5446623"
       sodipodi:type="inkscape:offset" />
    <rect
       style="fill:url(#linearGradient3787);stroke:none"
       id="rect3022"
       y="13"
       x="6"
       ry="2"
       rx="2"
       height="18"
       width="20" />
    <rect
       style="fill:#ffd506;stroke:none"
       id="rect917"
       y="17"
       x="6"
       height="4"
       width="20" />
    <path
       id="path919"
       d="M 9 17 L 6 20 L 6 21 L 9 21 L 13 17 L 9 17 z M 23 17 L 19 21 L 23 21 L 26 18 L 26 17 L 23 17 z "
       style="stroke:none" />
    <path
       d="m 12,21 4,-3.999999 4,0 L 16,21 z"
       inkscape:connector-curvature="0"
       id="path3803"
       style="stroke:none" />
    <rect
       y="16"
       x="8"
       height="1"
       width="16"
       id="rect3812"
       style="opacity:0.40000000000000002;fill:#ffffff;stroke:none" />
    <rect
       style="opacity:0.40000000000000002;fill:#ffffff;stroke:none"
       id="rect3814"
       width="16"
       height="1"
       x="8"
       y="21" />
    <rect
       y="20"
       x="7.03125"
       height="1"
       width="17.9375"
       id="rect3816"
       style="opacity:0.40000000000000002;fill:#000000;stroke:none" />
    <rect
       style="opacity:0.40000000000000002;fill:#000000;stroke:none"
       id="rect3818"
       width="17.9375"
       height="1"
       x="7.03125"
       y="17" />
    <path
       sodipodi:type="inkscape:offset"
       inkscape:radius="-1.5348583"
       inkscape:original="M 8 13 C 6.892 13 6 13.892 6 15 L 6 29 C 6 30.108 6.892 31 8 31 L 24 31 C 25.108 31 26 30.108 26 29 L 26 15 C 26 13.892 25.108 13 24 13 L 8 13 z "
       style="opacity:0.40000000000000002;fill:none;stroke:url(#linearGradient3801)"
       id="path3793"
       d="m 8,14.53125 c -0.2842373,0 -0.46875,0.184513 -0.46875,0.46875 l 0,14 c 0,0.284237 0.1845127,0.46875 0.46875,0.46875 l 16,0 c 0.284237,0 0.46875,-0.184513 0.46875,-0.46875 l 0,-14 c 0,-0.284237 -0.184513,-0.46875 -0.46875,-0.46875 l -16,0 z" />
    <path
       d="m 8,13.5 c -0.8449104,0 -1.5,0.65509 -1.5,1.5 l 0,14 c 0,0.84491 0.6550896,1.5 1.5,1.5 l 16,0 c 0.84491,0 1.5,-0.65509 1.5,-1.5 l 0,-14 c 0,-0.84491 -0.65509,-1.5 -1.5,-1.5 l -16,0 z"
       id="path3791"
       style="opacity:0.40000000000000002;fill:none;stroke:#000000"
       inkscape:original="M 8 13 C 6.892 13 6 13.892 6 15 L 6 29 C 6 30.108 6.892 31 8 31 L 24 31 C 25.108 31 26 30.108 26 29 L 26 15 C 26 13.892 25.108 13 24 13 L 8 13 z "
       inkscape:radius="-0.49019608"
       sodipodi:type="inkscape:offset" />
  </g>
</svg>

<?xml version="1.0" encoding="UTF-8" standalone="no"?>
<!-- Created with Inkscape (http://www.inkscape.org/) -->

<svg
   xmlns:dc="http://purl.org/dc/elements/1.1/"
   xmlns:cc="http://creativecommons.org/ns#"
   xmlns:rdf="http://www.w3.org/1999/02/22-rdf-syntax-ns#"
   xmlns:svg="http://www.w3.org/2000/svg"
   xmlns="http://www.w3.org/2000/svg"
   xmlns:xlink="http://www.w3.org/1999/xlink"
   xmlns:inkscape="http://www.inkscape.org/namespaces/inkscape"
   version="1.0"
   width="32"
   height="32"
   id="svg2">
  <metadata
     id="metadata34">
    <rdf:RDF>
      <cc:Work
         rdf:about="">
        <dc:format>image/svg+xml</dc:format>
        <dc:type
           rdf:resource="http://purl.org/dc/dcmitype/StillImage" />
        <dc:title />
      </cc:Work>
    </rdf:RDF>
  </metadata>
  <defs
     id="defs5">
    <linearGradient
       id="linearGradient3795">
      <stop
         id="stop3797"
         style="stop-color:#ffffff;stop-opacity:1"
         offset="0" />
      <stop
         id="stop3799"
         style="stop-color:#ffffff;stop-opacity:0"
         offset="1" />
    </linearGradient>
    <linearGradient
       id="linearGradient895">
      <stop
         id="stop897"
         style="stop-color:#929292;stop-opacity:1"
         offset="0" />
      <stop
         id="stop899"
         style="stop-color:#d6d6d6;stop-opacity:1"
         offset="1" />
    </linearGradient>
    <linearGradient
       id="linearGradient879">
      <stop
         id="stop881"
         style="stop-color:#ebebeb;stop-opacity:1"
         offset="0" />
      <stop
         id="stop883"
         style="stop-color:#6a6a6a;stop-opacity:1"
         offset="1" />
    </linearGradient>
    <radialGradient
       cx="25.269983"
       cy="12.785984"
       r="11"
       fx="25.269983"
       fy="12.785984"
       id="radialGradient885"
       xlink:href="#linearGradient879"
       gradientUnits="userSpaceOnUse"
       gradientTransform="matrix(-1.5879225,1.2657355,-1.3223142,-1.3939393,70.124772,-8.095428)" />
    <linearGradient
       x1="39"
       y1="20"
       x2="39"
       y2="47"
       id="linearGradient3787"
       xlink:href="#linearGradient895"
       gradientUnits="userSpaceOnUse"
       gradientTransform="matrix(0.66666667,0,0,0.66666667,0,-0.33333297)" />
    <linearGradient
       x1="24.96875"
       y1="14.03125"
       x2="24.96875"
       y2="29.96875"
       id="linearGradient3801"
       xlink:href="#linearGradient3795"
       gradientUnits="userSpaceOnUse" />
  </defs>
  <g
     id="g3870"
     style="opacity:0.5">
    <path
       d="M 13.818182,5 C 10.594909,5 8,7.378667 8,10.333333 l 0,7.333334 C 8,20.621333 10.594909,23 13.818182,23 l 4.363637,0 C 21.405092,23 24,20.621333 24,17.666667 l 0,-7.333334 C 24,7.378667 21.405092,5 18.181819,5 z m 0,3.067 4.363637,0 c 1.66749,0 2.909091,0.7378 2.909091,2.266333 l 0,7.333334 c 0,1.528533 -1.241601,2.666666 -2.909091,2.666666 l -4.363637,0 c -1.66749,0 -2.809182,-1.138133 -2.809182,-2.666666 l 0,-7.333334 C 11.009,8.8048 12.150692,8.067 13.818182,8.067 z"
       inkscape:connector-curvature="0"
       id="path3828"
       style="opacity:0.15;fill:#000000;stroke:none" />
    <rect
       width="20"
       height="18"
       rx="2"
       ry="2"
       x="6"
       y="14"
       id="rect3824"
       style="opacity:0.15;fill:#000000;stroke:none" />
    <path
       d="M 13.818182,4 C 10.594909,4 8,6.378667 8,9.333333 l 0,7.333334 C 8,19.621333 10.594909,22 13.818182,22 l 4.363637,0 C 21.405092,22 24,19.621333 24,16.666667 L 24,9.333333 C 24,6.378667 21.405092,4 18.181819,4 z m 0,3.067 4.363637,0 c 1.66749,0 2.909091,0.7378 2.909091,2.266333 l 0,7.333334 c 0,1.528533 -1.241601,2.666666 -2.909091,2.666666 l -4.363637,0 c -1.66749,0 -2.809182,-1.138133 -2.809182,-2.666666 l 0,-7.333334 C 11.009,7.8048 12.150692,7.067 13.818182,7.067 z"
       inkscape:connector-curvature="0"
       id="rect54"
       style="fill:url(#radialGradient885);stroke:none" />
    <path
       d="m 13.8125,4.53125 c -2.954138,0 -5.28125,2.1760322 -5.28125,4.8125 l 0,7.3125 c 0,2.636468 2.327112,4.8125 5.28125,4.8125 l 4.375,0 c 2.954138,0 5.28125,-2.176032 5.28125,-4.8125 l 0,-7.3125 c 0,-2.6364678 -2.327112,-4.8125 -5.28125,-4.8125 l -4.375,0 z m 0,2 4.375,0 c 0.9157,0 1.761589,0.1843861 2.40625,0.65625 0.644661,0.4718639 1.03125,1.2448477 1.03125,2.15625 l 0,7.3125 c 0,1.822805 -1.517636,3.21875 -3.4375,3.21875 l -4.375,0 c -1.919864,0 -3.34375,-1.418216 -3.34375,-3.21875 l 0,-7.3125 c 0,-0.900267 0.345333,-1.6783164 0.96875,-2.15625 0.623417,-0.4779336 1.4593,-0.65625 2.375,-0.65625 z"
       id="path3822"
       style="opacity:0.4;fill:none;stroke:#000000" />
    <rect
       width="20"
       height="18"
       rx="2"
       ry="2"
       x="6"
       y="13"
       id="rect3022"
       style="fill:url(#linearGradient3787);stroke:none" />
    <rect
       width="20"
       height="4"
       x="6"
       y="17"
       id="rect917"
       style="fill:#ffd506;stroke:none" />
    <path
       d="m 9,17 -3,3 0,1 3,0 4,-4 -4,0 z m 14,0 -4,4 4,0 3,-3 0,-1 -3,0 z"
       inkscape:connector-curvature="0"
       id="path919"
       style="stroke:none" />
    <path
       d="m 12,21 4,-3.999999 4,0 L 16,21 z"
       inkscape:connector-curvature="0"
       id="path3803"
       style="stroke:none" />
    <rect
       width="16"
       height="1"
       x="8"
       y="16"
       id="rect3812"
       style="opacity:0.4;fill:#ffffff;stroke:none" />
    <rect
       width="16"
       height="1"
       x="8"
       y="21"
       id="rect3814"
       style="opacity:0.4;fill:#ffffff;stroke:none" />
    <rect
       width="17.9375"
       height="1"
       x="7.03125"
       y="20"
       id="rect3816"
       style="opacity:0.4;fill:#000000;stroke:none" />
    <rect
       width="17.9375"
       height="1"
       x="7.03125"
       y="17"
       id="rect3818"
       style="opacity:0.4;fill:#000000;stroke:none" />
    <path
       d="m 8,14.53125 c -0.2842373,0 -0.46875,0.184513 -0.46875,0.46875 l 0,14 c 0,0.284237 0.1845127,0.46875 0.46875,0.46875 l 16,0 c 0.284237,0 0.46875,-0.184513 0.46875,-0.46875 l 0,-14 c 0,-0.284237 -0.184513,-0.46875 -0.46875,-0.46875 l -16,0 z"
       id="path3793"
       style="opacity:0.4;fill:none;stroke:url(#linearGradient3801)" />
    <path
       d="m 8,13.5 c -0.8449104,0 -1.5,0.65509 -1.5,1.5 l 0,14 c 0,0.84491 0.6550896,1.5 1.5,1.5 l 16,0 c 0.84491,0 1.5,-0.65509 1.5,-1.5 l 0,-14 c 0,-0.84491 -0.65509,-1.5 -1.5,-1.5 l -16,0 z"
       id="path3791"
       style="opacity:0.4;fill:none;stroke:#000000" />
  </g>
</svg>
